static/img/kroki/5579237eb3260f58869a30c12253f2a1.svg

<?xml version="1.0" encoding="us-ascii" standalone="no"?><svg xmlns="http://www.w3.org/2000/svg" xmlns:xlink="http://www.w3.org/1999/xlink" contentStyleType="text/css" height="1030px" preserveAspectRatio="none" style="width:403px;height:1030px;" version="1.1" viewBox="0 0 403 1030" width="403px" zoomAndPan="magnify"><defs/><g><!--class aws_ec2_snapshot--><g id="elem_aws_ec2_snapshot"><rect codeLine="23" fill="#3D176E" height="231.8672" id="aws_ec2_snapshot" rx="2.5" ry="2.5" style="stroke:#000D19;stroke-width:0.5;" width="332" x="23.5" y="791.62"/><ellipse cx="102.75" cy="811.5145" fill="#ADD1B2" rx="11" ry="11" style="stroke:#181818;stroke-width:1.0;"/><path d="M105.7188,817.1552 Q105.1406,817.452 104.5,817.5927 Q103.8594,817.7489 103.1563,817.7489 Q100.6563,817.7489 99.3281,816.1083 Q98.0156,814.452 98.0156,811.327 Q98.0156,808.202 99.3281,806.5458 Q100.6563,804.8895 103.1563,804.8895 Q103.8594,804.8895 104.5,805.0458 Q105.1563,805.202 105.7188,805.4989 L105.7188,808.2177 Q105.0938,807.6395 104.5,807.3739 Q103.9063,807.0927 103.2813,807.0927 Q101.9375,807.0927 101.25,808.1708 Q100.5625,809.2333 100.5625,811.327 Q100.5625,813.4208 101.25,814.4989 Q101.9375,815.5614 103.2813,815.5614 Q103.9063,815.5614 104.5,815.2958 Q105.0938,815.0145 105.7188,814.4364 L105.7188,817.1552 Z " fill="#000000"/><text fill="#D9B8FF" font-family="Helvetica" font-size="17" lengthAdjust="spacing" textLength="155" x="128.25" y="817.3998">aws_ec2_snapshot</text><line style="stroke:#000D19;stroke-width:0.5;" x1="24.5" x2="354.5" y1="831.4091" y2="831.4091"/><text fill="#D9B8FF" font-family="sans-serif" font-size="14" font-weight="bold" lengthAdjust="spacing" textLength="262" x="34.5" y="853.4042">snapshot_data_encryption_key_id</text><text fill="#D9B8FF" font-family="sans-serif" font-size="14" lengthAdjust="spacing" textLength="48" x="296.5" y="853.4042">: string</text><text fill="#D9B8FF" font-family="sans-serif" font-size="14" font-weight="bold" lengthAdjust="spacing" textLength="168" x="34.5" y="879.7011">snapshot_kms_key_id</text><text fill="#D9B8FF" font-family="sans-serif" font-size="14" lengthAdjust="spacing" textLength="48" x="202.5" y="879.7011">: string</text><text fill="#D9B8FF" font-family="sans-serif" font-size="14" font-weight="bold" lengthAdjust="spacing" textLength="174" x="34.5" y="905.9979">snapshot_outpost_arn</text><text fill="#D9B8FF" font-family="sans-serif" font-size="14" lengthAdjust="spacing" textLength="48" x="208.5" y="905.9979">: string</text><text fill="#D9B8FF" font-family="sans-serif" font-size="14" font-weight="bold" lengthAdjust="spacing" textLength="152" x="34.5" y="932.2948">snapshot_progress</text><text fill="#D9B8FF" font-family="sans-serif" font-size="14" lengthAdjust="spacing" textLength="48" x="186.5" y="932.2948">: string</text><text fill="#D9B8FF" font-family="sans-serif" font-size="14" font-weight="bold" lengthAdjust="spacing" textLength="236" x="34.5" y="958.5917">snapshot_restore_expiry_time</text><text fill="#D9B8FF" font-family="sans-serif" font-size="14" lengthAdjust="spacing" textLength="70" x="270.5" y="958.5917">: datetime</text><text fill="#D9B8FF" font-family="sans-serif" font-size="14" font-weight="bold" lengthAdjust="spacing" textLength="198" x="34.5" y="984.8886">snapshot_state_message</text><text fill="#D9B8FF" font-family="sans-serif" font-size="14" lengthAdjust="spacing" textLength="48" x="232.5" y="984.8886">: string</text><text fill="#D9B8FF" font-family="sans-serif" font-size="14" font-weight="bold" lengthAdjust="spacing" textLength="175" x="34.5" y="1011.1854">snapshot_storage_tier</text><text fill="#D9B8FF" font-family="sans-serif" font-size="14" lengthAdjust="spacing" textLength="48" x="209.5" y="1011.1854">: string</text></g><!--class aws_resource--><g id="elem_aws_resource"><rect codeLine="32" fill="#3D176E" height="74.0859" id="aws_resource" rx="2.5" ry="2.5" style="stroke:#000D19;stroke-width:0.5;" width="155" x="7" y="517.65"/><ellipse cx="22" cy="537.5445" fill="#ADD1B2" rx="11" ry="11" style="stroke:#181818;stroke-width:1.0;"/><path d="M24.9688,543.1852 Q24.3906,543.482 23.75,543.6227 Q23.1094,543.7789 22.4063,543.7789 Q19.9063,543.7789 18.5781,542.1383 Q17.2656,540.482 17.2656,537.357 Q17.2656,534.232 18.5781,532.5758 Q19.9063,530.9195 22.4063,530.9195 Q23.1094,530.9195 23.75,531.0758 Q24.4063,531.232 24.9688,531.5289 L24.9688,534.2477 Q24.3438,533.6695 23.75,533.4039 Q23.1563,533.1227 22.5313,533.1227 Q21.1875,533.1227 20.5,534.2008 Q19.8125,535.2633 19.8125,537.357 Q19.8125,539.4508 20.5,540.5289 Q21.1875,541.5914 22.5313,541.5914 Q23.1563,541.5914 23.75,541.3258 Q24.3438,541.0445 24.9688,540.4664 L24.9688,543.1852 Z " fill="#000000"/><text fill="#D9B8FF" font-family="Helvetica" font-size="17" lengthAdjust="spacing" textLength="113" x="41" y="543.4298">aws_resource</text><line style="stroke:#000D19;stroke-width:0.5;" x1="8" x2="161" y1="557.4391" y2="557.4391"/><text fill="#D9B8FF" font-family="sans-serif" font-size="14" font-weight="bold" lengthAdjust="spacing" textLength="26" x="18" y="579.4342">arn</text><text fill="#D9B8FF" font-family="sans-serif" font-size="14" lengthAdjust="spacing" textLength="48" x="44" y="579.4342">: string</text></g><!--class resource--><g id="elem_resource"><rect codeLine="35" fill="#3D176E" height="310.7578" id="resource" rx="2.5" ry="2.5" style="stroke:#000D19;stroke-width:0.5;" width="227" x="76" y="7"/><ellipse cx="144.75" cy="26.8945" fill="#ADD1B2" rx="11" ry="11" style="stroke:#181818;stroke-width:1.0;"/><path d="M147.7188,32.5352 Q147.1406,32.832 146.5,32.9727 Q145.8594,33.1289 145.1563,33.1289 Q142.6563,33.1289 141.3281,31.4883 Q140.0156,29.832 140.0156,26.707 Q140.0156,23.582 141.3281,21.9258 Q142.6563,20.2695 145.1563,20.2695 Q145.8594,20.2695 146.5,20.4258 Q147.1563,20.582 147.7188,20.8789 L147.7188,23.5977 Q147.0938,23.0195 146.5,22.7539 Q145.9063,22.4727 145.2813,22.4727 Q143.9375,22.4727 143.25,23.5508 Q142.5625,24.6133 142.5625,26.707 Q142.5625,28.8008 143.25,29.8789 Q143.9375,30.9414 145.2813,30.9414 Q145.9063,30.9414 146.5,30.6758 Q147.0938,30.3945 147.7188,29.8164 L147.7188,32.5352 Z " fill="#000000"/><text fill="#D9B8FF" font-family="Helvetica" font-size="17" lengthAdjust="spacing" textLength="71" x="170.25" y="32.7798">resource</text><line style="stroke:#000D19;stroke-width:0.5;" x1="77" x2="302" y1="46.7891" y2="46.7891"/><text fill="#D9B8FF" font-family="sans-serif" font-size="14" font-weight="bold" lengthAdjust="spacing" textLength="29" x="87" y="68.7842">age</text><text fill="#D9B8FF" font-family="sans-serif" font-size="14" lengthAdjust="spacing" textLength="66" x="116" y="68.7842">: duration</text><text fill="#D9B8FF" font-family="sans-serif" font-size="14" font-weight="bold" lengthAdjust="spacing" textLength="43" x="87" y="95.0811">atime</text><text fill="#D9B8FF" font-family="sans-serif" font-size="14" lengthAdjust="spacing" textLength="70" x="130" y="95.0811">: datetime</text><text fill="#D9B8FF" font-family="sans-serif" font-size="14" font-weight="bold" lengthAdjust="spacing" textLength="43" x="87" y="121.3779">ctime</text><text fill="#D9B8FF" font-family="sans-serif" font-size="14" lengthAdjust="spacing" textLength="70" x="130" y="121.3779">: datetime</text><text fill="#D9B8FF" font-family="sans-serif" font-size="14" font-weight="bold" lengthAdjust="spacing" textLength="14" x="87" y="147.6748">id</text><text fill="#D9B8FF" font-family="sans-serif" font-size="14" lengthAdjust="spacing" textLength="48" x="101" y="147.6748">: string</text><text fill="#D9B8FF" font-family="sans-serif" font-size="14" font-weight="bold" lengthAdjust="spacing" textLength="33" x="87" y="173.9717">kind</text><text fill="#D9B8FF" font-family="sans-serif" font-size="14" lengthAdjust="spacing" textLength="48" x="120" y="173.9717">: string</text><text fill="#D9B8FF" font-family="sans-serif" font-size="14" font-weight="bold" lengthAdjust="spacing" textLength="90" x="87" y="200.2686">last_access</text><text fill="#D9B8FF" font-family="sans-serif" font-size="14" lengthAdjust="spacing" textLength="66" x="177" y="200.2686">: duration</text><text fill="#D9B8FF" font-family="sans-serif" font-size="14" font-weight="bold" lengthAdjust="spacing" textLength="90" x="87" y="226.5654">last_update</text><text fill="#D9B8FF" font-family="sans-serif" font-size="14" lengthAdjust="spacing" textLength="66" x="177" y="226.5654">: duration</text><text fill="#D9B8FF" font-family="sans-serif" font-size="14" font-weight="bold" lengthAdjust="spacing" textLength="48" x="87" y="252.8623">mtime</text><text fill="#D9B8FF" font-family="sans-serif" font-size="14" lengthAdjust="spacing" textLength="70" x="135" y="252.8623">: datetime</text><text fill="#D9B8FF" font-family="sans-serif" font-size="14" font-weight="bold" lengthAdjust="spacing" textLength="43" x="87" y="279.1592">name</text><text fill="#D9B8FF" font-family="sans-serif" font-size="14" lengthAdjust="spacing" textLength="48" x="130" y="279.1592">: string</text><text fill="#D9B8FF" font-family="sans-serif" font-size="14" font-weight="bold" lengthAdjust="spacing" textLength="34" x="87" y="305.4561">tags</text><text fill="#D9B8FF" font-family="sans-serif" font-size="14" lengthAdjust="spacing" textLength="171" x="121" y="305.4561">: dictionary[string, string]</text></g><!--class snapshot--><g id="elem_snapshot"><rect codeLine="47" fill="#3D176E" height="231.8672" id="snapshot" rx="2.5" ry="2.5" style="stroke:#000D19;stroke-width:0.5;" width="199" x="197" y="438.76"/><ellipse cx="249.75" cy="458.6545" fill="#ADD1B2" rx="11" ry="11" style="stroke:#181818;stroke-width:1.0;"/><path d="M252.7188,464.2952 Q252.1406,464.592 251.5,464.7327 Q250.8594,464.8889 250.1563,464.8889 Q247.6563,464.8889 246.3281,463.2483 Q245.0156,461.592 245.0156,458.467 Q245.0156,455.342 246.3281,453.6858 Q247.6563,452.0295 250.1563,452.0295 Q250.8594,452.0295 251.5,452.1858 Q252.1563,452.342 252.7188,452.6389 L252.7188,455.3577 Q252.0938,454.7795 251.5,454.5139 Q250.9063,454.2327 250.2813,454.2327 Q248.9375,454.2327 248.25,455.3108 Q247.5625,456.3733 247.5625,458.467 Q247.5625,460.5608 248.25,461.6389 Q248.9375,462.7014 250.2813,462.7014 Q250.9063,462.7014 251.5,462.4358 Q252.0938,462.1545 252.7188,461.5764 L252.7188,464.2952 Z " fill="#000000"/><text fill="#D9B8FF" font-family="Helvetica" font-size="17" lengthAdjust="spacing" textLength="75" x="275.25" y="464.5398">snapshot</text><line style="stroke:#000D19;stroke-width:0.5;" x1="198" x2="395" y1="478.5491" y2="478.5491"/><text fill="#D9B8FF" font-family="sans-serif" font-size="14" font-weight="bold" lengthAdjust="spacing" textLength="89" x="208" y="500.5442">description</text><text fill="#D9B8FF" font-family="sans-serif" font-size="14" lengthAdjust="spacing" textLength="48" x="297" y="500.5442">: string</text><text fill="#D9B8FF" font-family="sans-serif" font-size="14" font-weight="bold" lengthAdjust="spacing" textLength="81" x="208" y="526.8411">encrypted</text><text fill="#D9B8FF" font-family="sans-serif" font-size="14" lengthAdjust="spacing" textLength="65" x="289" y="526.8411">: boolean</text><text fill="#D9B8FF" font-family="sans-serif" font-size="14" font-weight="bold" lengthAdjust="spacing" textLength="93" x="208" y="553.1379">owner_alias</text><text fill="#D9B8FF" font-family="sans-serif" font-size="14" lengthAdjust="spacing" textLength="48" x="301" y="553.1379">: string</text><text fill="#D9B8FF" font-family="sans-serif" font-size="14" font-weight="bold" lengthAdjust="spacing" textLength="72" x="208" y="579.4348">owner_id</text><text fill="#D9B8FF" font-family="sans-serif" font-size="14" lengthAdjust="spacing" textLength="48" x="280" y="579.4348">: string</text><text fill="#D9B8FF" font-family="sans-serif" font-size="14" font-weight="bold" lengthAdjust="spacing" textLength="129" x="208" y="605.7317">snapshot_status</text><text fill="#D9B8FF" font-family="sans-serif" font-size="14" lengthAdjust="spacing" textLength="48" x="337" y="605.7317">: string</text><text fill="#D9B8FF" font-family="sans-serif" font-size="14" font-weight="bold" lengthAdjust="spacing" textLength="78" x="208" y="632.0286">volume_id</text><text fill="#D9B8FF" font-family="sans-serif" font-size="14" lengthAdjust="spacing" textLength="48" x="286" y="632.0286">: string</text><text fill="#D9B8FF" font-family="sans-serif" font-size="14" font-weight="bold" lengthAdjust="spacing" textLength="96" x="208" y="658.3254">volume_size</text><text fill="#D9B8FF" font-family="sans-serif" font-size="14" lengthAdjust="spacing" textLength="44" x="304" y="658.3254">: int64</text></g><!--reverse link aws_resource to aws_ec2_snapshot--><g id="link_aws_resource_aws_ec2_snapshot"><path codeLine="56" d="M100.5004,609.1644 C114.4904,655.9144 134.34,722.22 155.06,791.48 " fill="none" id="aws_resource-backto-aws_ec2_snapshot" style="stroke:#FFAF37;stroke-width:2.0;"/><polygon fill="none" points="95.34,591.92,94.7523,610.8846,106.2486,607.4443,95.34,591.92" style="stroke:#FFAF37;stroke-width:2.0;"/></g><!--reverse link snapshot to aws_ec2_snapshot--><g id="link_snapshot_aws_ec2_snapshot"><path codeLine="57" d="M256.0681,688.2768 C244.2781,726.9268 236.39,752.78 224.61,791.41 " fill="none" id="snapshot-backto-aws_ec2_snapshot" style="stroke:#FFAF37;stroke-width:2.0;"/><polygon fill="none" points="261.32,671.06,250.3292,686.5261,261.807,690.0274,261.32,671.06" style="stroke:#FFAF37;stroke-width:2.0;"/></g><!--reverse link resource to aws_resource--><g id="link_resource_aws_resource"><path codeLine="58" d="M143.1736,335.5819 C123.5336,408.5819 106.45,472.08 94.23,517.52 " fill="none" id="resource-backto-aws_resource" style="stroke:#FFAF37;stroke-width:2.0;"/><polygon fill="none" points="147.85,318.2,137.3796,334.0231,148.9675,337.1407,147.85,318.2" style="stroke:#FFAF37;stroke-width:2.0;"/></g><!--reverse link resource to snapshot--><g id="link_resource_snapshot"><path codeLine="59" d="M236.6995,335.5593 C247.6995,375.6793 254.59,400.82 264.92,438.5 " fill="none" id="resource-backto-snapshot" style="stroke:#FFAF37;stroke-width:2.0;"/><polygon fill="none" points="231.94,318.2,230.9131,337.1459,242.486,333.9728,231.94,318.2" style="stroke:#FFAF37;stroke-width:2.0;"/></g><!--SRC=[XPHDRzim38Rl-HK6UWiM86ctfXbswG8CswKOrjs6GM0aEX5YIGP5D_C-_lkas0daZwItcEz3yYL5PASLPcXAhZE3PeFa9twlRGa49diaSeUrAnnbDtaE-TsoBtvobby5di1WzXcB5sGjeKzytscvj-XzTfj87q7kj-GggvhoJ61zaD1oGgqByFwHcVIcOapCgDNc8S_xPB_epPrQBEznW3bII2qody_LOjL7NcrrTUupyQn_OxP8b_Ra60Ss1osEr5MNaKXC3WOzwHSzVWMbjDrcxvBOjyOJMQHE_7a7oXqYdKFXqpQUaT1nNU9wC1Mk7bI-78M_N88dCgukWuCNA6-5jr3wdUFipsGwFNq81Gm2hQIwPEsis6Cjj9fEtuSE55ocxDxugxghk7IU1P0T1qfoMmhNEwu6XHsXm5-bfbgmDXZ1u13ZxnJr78B2X5AmnV5giLOGGncaXFYNR2KqT1L9F6waQ_g4TP6cbwe8ugvYPCIa78drDXPUiHi8lSBQf6ntatGuAbKPQ_KKCzB7WkckWs7RLDGofW7LFnhjJSlyF8_QkG-5Nf8-daIdNdifUBI_SQv0Y5xS8PovW493zssR-ALxYQzOTHDUN54Px6UqKH_-0M9SMxv_6tnttl33tzbiDZZsoNcg2_f8_YdKryuv_m40]--></g></svg>

<svg xmlns="http://www.w3.org/2000/svg" width="403" height="1030" viewBox="0 0 403 1030"><rect width="332" height="231.867" x="23.5" y="791.62" fill="#3D176E" rx="2.5" ry="2.5" style="stroke:#000d19;stroke-width:.5"/><circle cx="102.75" cy="811.514" r="11" fill="#ADD1B2" style="stroke:#181818;stroke-width:1"/><path d="M105.719 817.155q-.578.297-1.219.438-.64.156-1.344.156-2.5 0-3.828-1.64-1.312-1.657-1.312-4.782t1.312-4.781q1.328-1.657 3.828-1.657.703 0 1.344.157.656.156 1.219.453v2.719q-.625-.578-1.219-.844-.594-.281-1.219-.281-1.344 0-2.031 1.078-.687 1.062-.687 3.156t.687 3.172q.688 1.062 2.031 1.062.625 0 1.219-.265.594-.282 1.219-.86z"/><text x="128.25" y="817.4" fill="#D9B8FF" font-family="Helvetica" font-size="17" textLength="155">aws_ec2_snapshot</text><path d="M24.5 831.409h330" style="stroke:#000d19;stroke-width:.5"/><text x="34.5" y="853.404" fill="#D9B8FF" font-family="sans-serif" font-size="14" font-weight="bold" textLength="262">snapshot_data_encryption_key_id</text><text x="296.5" y="853.404" fill="#D9B8FF" font-family="sans-serif" font-size="14" textLength="48">: string</text><text x="34.5" y="879.701" fill="#D9B8FF" font-family="sans-serif" font-size="14" font-weight="bold" textLength="168">snapshot_kms_key_id</text><text x="202.5" y="879.701" fill="#D9B8FF" font-family="sans-serif" font-size="14" textLength="48">: string</text><text x="34.5" y="905.998" fill="#D9B8FF" font-family="sans-serif" font-size="14" font-weight="bold" textLength="174">snapshot_outpost_arn</text><text x="208.5" y="905.998" fill="#D9B8FF" font-family="sans-serif" font-size="14" textLength="48">: string</text><text x="34.5" y="932.295" fill="#D9B8FF" font-family="sans-serif" font-size="14" font-weight="bold" textLength="152">snapshot_progress</text><text x="186.5" y="932.295" fill="#D9B8FF" font-family="sans-serif" font-size="14" textLength="48">: string</text><text x="34.5" y="958.592" fill="#D9B8FF" font-family="sans-serif" font-size="14" font-weight="bold" textLength="236">snapshot_restore_expiry_time</text><text x="270.5" y="958.592" fill="#D9B8FF" font-family="sans-serif" font-size="14" textLength="70">: datetime</text><text x="34.5" y="984.889" fill="#D9B8FF" font-family="sans-serif" font-size="14" font-weight="bold" textLength="198">snapshot_state_message</text><text x="232.5" y="984.889" fill="#D9B8FF" font-family="sans-serif" font-size="14" textLength="48">: string</text><text x="34.5" y="1011.185" fill="#D9B8FF" font-family="sans-serif" font-size="14" font-weight="bold" textLength="175">snapshot_storage_tier</text><text x="209.5" y="1011.185" fill="#D9B8FF" font-family="sans-serif" font-size="14" textLength="48">: string</text><rect width="155" height="74.086" x="7" y="517.65" fill="#3D176E" rx="2.5" ry="2.5" style="stroke:#000d19;stroke-width:.5"/><circle cx="22" cy="537.544" r="11" fill="#ADD1B2" style="stroke:#181818;stroke-width:1"/><path d="M24.969 543.185q-.578.297-1.219.438-.64.156-1.344.156-2.5 0-3.828-1.64-1.312-1.657-1.312-4.782t1.312-4.781q1.328-1.657 3.828-1.657.703 0 1.344.157.656.156 1.219.453v2.719q-.625-.579-1.219-.844-.594-.281-1.219-.281-1.343 0-2.031 1.078-.687 1.062-.687 3.156t.687 3.172q.688 1.062 2.031 1.062.625 0 1.219-.265.594-.282 1.219-.86z"/><text x="41" y="543.43" fill="#D9B8FF" font-family="Helvetica" font-size="17" textLength="113">aws_resource</text><path d="M8 557.439h153" style="stroke:#000d19;stroke-width:.5"/><text x="18" y="579.434" fill="#D9B8FF" font-family="sans-serif" font-size="14" font-weight="bold" textLength="26">arn</text><text x="44" y="579.434" fill="#D9B8FF" font-family="sans-serif" font-size="14" textLength="48">: string</text><rect width="227" height="310.758" x="76" y="7" fill="#3D176E" rx="2.5" ry="2.5" style="stroke:#000d19;stroke-width:.5"/><circle cx="144.75" cy="26.895" r="11" fill="#ADD1B2" style="stroke:#181818;stroke-width:1"/><path d="M147.719 32.535q-.578.297-1.219.438-.64.156-1.344.156-2.5 0-3.828-1.64-1.312-1.657-1.312-4.782t1.312-4.781q1.328-1.656 3.828-1.656.703 0 1.344.156.656.156 1.219.453v2.719q-.625-.578-1.219-.844-.594-.281-1.219-.281-1.344 0-2.031 1.078-.687 1.062-.687 3.156t.687 3.172q.688 1.062 2.031 1.062.625 0 1.219-.265.594-.281 1.219-.86z"/><text x="170.25" y="32.78" fill="#D9B8FF" font-family="Helvetica" font-size="17" textLength="71">resource</text><path d="M77 46.789h225" style="stroke:#000d19;stroke-width:.5"/><text x="87" y="68.784" fill="#D9B8FF" font-family="sans-serif" font-size="14" font-weight="bold" textLength="29">age</text><text x="116" y="68.784" fill="#D9B8FF" font-family="sans-serif" font-size="14" textLength="66">: duration</text><text x="87" y="95.081" fill="#D9B8FF" font-family="sans-serif" font-size="14" font-weight="bold" textLength="43">atime</text><text x="130" y="95.081" fill="#D9B8FF" font-family="sans-serif" font-size="14" textLength="70">: datetime</text><text x="87" y="121.378" fill="#D9B8FF" font-family="sans-serif" font-size="14" font-weight="bold" textLength="43">ctime</text><text x="130" y="121.378" fill="#D9B8FF" font-family="sans-serif" font-size="14" textLength="70">: datetime</text><text x="87" y="147.675" fill="#D9B8FF" font-family="sans-serif" font-size="14" font-weight="bold" textLength="14">id</text><text x="101" y="147.675" fill="#D9B8FF" font-family="sans-serif" font-size="14" textLength="48">: string</text><text x="87" y="173.972" fill="#D9B8FF" font-family="sans-serif" font-size="14" font-weight="bold" textLength="33">kind</text><text x="120" y="173.972" fill="#D9B8FF" font-family="sans-serif" font-size="14" textLength="48">: string</text><text x="87" y="200.269" fill="#D9B8FF" font-family="sans-serif" font-size="14" font-weight="bold" textLength="90">last_access</text><text x="177" y="200.269" fill="#D9B8FF" font-family="sans-serif" font-size="14" textLength="66">: duration</text><text x="87" y="226.565" fill="#D9B8FF" font-family="sans-serif" font-size="14" font-weight="bold" textLength="90">last_update</text><text x="177" y="226.565" fill="#D9B8FF" font-family="sans-serif" font-size="14" textLength="66">: duration</text><text x="87" y="252.862" fill="#D9B8FF" font-family="sans-serif" font-size="14" font-weight="bold" textLength="48">mtime</text><text x="135" y="252.862" fill="#D9B8FF" font-family="sans-serif" font-size="14" textLength="70">: datetime</text><text x="87" y="279.159" fill="#D9B8FF" font-family="sans-serif" font-size="14" font-weight="bold" textLength="43">name</text><text x="130" y="279.159" fill="#D9B8FF" font-family="sans-serif" font-size="14" textLength="48">: string</text><text x="87" y="305.456" fill="#D9B8FF" font-family="sans-serif" font-size="14" font-weight="bold" textLength="34">tags</text><text x="121" y="305.456" fill="#D9B8FF" font-family="sans-serif" font-size="14" textLength="171">: dictionary[string, string]</text><rect width="199" height="231.867" x="197" y="438.76" fill="#3D176E" rx="2.5" ry="2.5" style="stroke:#000d19;stroke-width:.5"/><circle cx="249.75" cy="458.654" r="11" fill="#ADD1B2" style="stroke:#181818;stroke-width:1"/><path d="M252.719 464.295q-.578.297-1.219.438-.64.156-1.344.156-2.5 0-3.828-1.64-1.312-1.657-1.312-4.782t1.312-4.781q1.328-1.656 3.828-1.656.703 0 1.344.156.656.156 1.219.453v2.719q-.625-.579-1.219-.844-.594-.281-1.219-.281-1.344 0-2.031 1.078-.687 1.062-.687 3.156t.687 3.172q.688 1.062 2.031 1.062.625 0 1.219-.265.594-.281 1.219-.86z"/><text x="275.25" y="464.54" fill="#D9B8FF" font-family="Helvetica" font-size="17" textLength="75">snapshot</text><path d="M198 478.549h197" style="stroke:#000d19;stroke-width:.5"/><text x="208" y="500.544" fill="#D9B8FF" font-family="sans-serif" font-size="14" font-weight="bold" textLength="89">description</text><text x="297" y="500.544" fill="#D9B8FF" font-family="sans-serif" font-size="14" textLength="48">: string</text><text x="208" y="526.841" fill="#D9B8FF" font-family="sans-serif" font-size="14" font-weight="bold" textLength="81">encrypted</text><text x="289" y="526.841" fill="#D9B8FF" font-family="sans-serif" font-size="14" textLength="65">: boolean</text><text x="208" y="553.138" fill="#D9B8FF" font-family="sans-serif" font-size="14" font-weight="bold" textLength="93">owner_alias</text><text x="301" y="553.138" fill="#D9B8FF" font-family="sans-serif" font-size="14" textLength="48">: string</text><text x="208" y="579.435" fill="#D9B8FF" font-family="sans-serif" font-size="14" font-weight="bold" textLength="72">owner_id</text><text x="280" y="579.435" fill="#D9B8FF" font-family="sans-serif" font-size="14" textLength="48">: string</text><text x="208" y="605.732" fill="#D9B8FF" font-family="sans-serif" font-size="14" font-weight="bold" textLength="129">snapshot_status</text><text x="337" y="605.732" fill="#D9B8FF" font-family="sans-serif" font-size="14" textLength="48">: string</text><text x="208" y="632.029" fill="#D9B8FF" font-family="sans-serif" font-size="14" font-weight="bold" textLength="78">volume_id</text><text x="286" y="632.029" fill="#D9B8FF" font-family="sans-serif" font-size="14" textLength="48">: string</text><text x="208" y="658.325" fill="#D9B8FF" font-family="sans-serif" font-size="14" font-weight="bold" textLength="96">volume_size</text><text x="304" y="658.325" fill="#D9B8FF" font-family="sans-serif" font-size="14" textLength="44">: int64</text><g fill="none"><path d="M100.5 609.164c13.99 46.75 33.84 113.056 54.56 182.316" style="stroke:#ffaf37;stroke-width:2"/><path d="m95.34 591.92-.588 18.965 11.497-3.44z" style="stroke:#ffaf37;stroke-width:2"/></g><path fill="none" d="M256.068 688.277c-11.79 38.65-19.678 64.503-31.458 103.133m36.71-120.35-10.99 15.466 11.477 3.501zM143.174 335.582c-19.64 73-36.724 136.498-48.944 181.938m53.62-199.32-10.47 15.823 11.588 3.118zm88.85 17.36c11 40.12 17.89 65.26 28.22 102.94m-32.98-120.3-1.027 18.946 11.573-3.173z" style="stroke:#ffaf37;stroke-width:2"/></svg>
